X: 66
T: It Is Good Where We Are Now
N: Derived from pawnee66.krn
O: Oklahoma, U.S.A.
N: from Pawnee Music by Frances Densmore, 1926
Z: transcribed to **kern format by David Huron, August 2000
C: Skidi and Chaui Bands, 1919
L: 1/8
M: 3/4
Q: 1/4=88
K: D clef=treble
%%linebreak <none>
d3/ c/ [I:setbarnb 1]| 
d2c c (B3/ ^A/) | 
(!fermata!B> F)F2d3/ c/ | 
d2c c (B3/ ^A/) | 
B4(B3/ ^A/) | 
B2F F (D3/ C/) | 
D2C CB,2[M:2/4] | 
B,2B,2[M:3/4] | 
F,< F,-F,2F, F,[M:2/4] | 
F,3B[M:3/4] | 
B2B2B3/ c/ | 
B2(B3F/) F/ | 
(d c2<)(d2c/) c/[M:2/4] | 
B2B2- | 
B2B3/ B/[M:3/4] | 
B2F F D3/ C/ | 
D2C CB,2[M:2/4] | 
B,2B,2[M:3/4] | 
F,< F,-F,2F, F, | 
F,4 :|]  



